namco/_inc/system.svg

<svg xmlns="http://www.w3.org/2000/svg"><g fill="#fff"><path d="m510.75 0c-11.679 0-21.423 9.744-21.423 21.423v37.425c0 11.679 9.744 21.423 21.423 21.423h67.827c11.679 0 21.423-9.744 21.423-21.423v-37.425c0-11.679-9.744-21.423-21.423-21.423zm4.854 22.758h57.618v34.755h-57.618z"/><path d="m0 1.599v78.762h26.277v-56.004h49.608v56.004h25.773v-57.336c0-11.679-9.744-21.426-21.423-21.426z"/><path d="m119.439 1.599v20.715h71.382v5.598h-55.737c-11.679 0-21.423 9.834-21.423 21.513v9.513c0 11.676 9.744 21.423 21.423 21.423h55.737 11.643 14.136v-57.336c0-11.679-9.744-21.426-21.423-21.426zm21.066 47.292h50.316v11.202h-50.316z"/><path d="m232.779 1.599v78.762h26.313v-56.004h27.024v56.004h26.313v-56.004h27.555v56.004h25.779v-57.336c0-11.679-9.744-21.426-21.423-21.426z"/><path d="m402.477 0c-11.679 0-21.423 9.744-21.423 21.423v37.425c0 11.679 9.744 21.423 21.423 21.423h72.006v-22.758h-66.648v-34.755h66.648v-22.758z"/></g></svg>

<?xml version="1.0" encoding="utf-8"?>
<svg version="1.0" id="svg2" xmlns="http://www.w3.org/2000/svg">
  <g>
    <path d="M 510.75 0 C 499.071 0 489.327 9.744 489.327 21.423 L 489.327 58.848 C 489.327 70.527 499.071 80.271 510.75 80.271 L 578.577 80.271 C 590.256 80.271 600 70.527 600 58.848 L 600 21.423 C 600 9.744 590.256 0 578.577 0 L 510.75 0 Z M 515.604 22.758 L 573.222 22.758 L 573.222 57.513 L 515.604 57.513 L 515.604 22.758 Z" id="rect4393" style="opacity: 1; fill-opacity: 1; fill-rule: nonzero; stroke: none; stroke-width: 8; stroke-linecap: round; stroke-linejoin: round; stroke-miterlimit: 4; stroke-dasharray: none; stroke-opacity: 1; fill: rgb(255, 255, 255);"/>
    <path d="M 0 1.599 L 0 80.361 L 26.277 80.361 L 26.277 24.357 L 75.885 24.357 L 75.885 80.361 L 101.658 80.361 L 101.658 23.025 C 101.658 11.346 91.914 1.599 80.235 1.599 L 0 1.599 Z" id="rect4348" style="opacity: 1; fill-opacity: 1; fill-rule: nonzero; stroke: none; stroke-width: 8; stroke-linecap: round; stroke-linejoin: round; stroke-miterlimit: 4; stroke-dasharray: none; stroke-opacity: 1; fill: rgb(255, 255, 255);"/>
    <path d="M 119.439 1.599 L 119.439 22.314 L 190.821 22.314 L 190.821 27.912 L 135.084 27.912 C 123.405 27.912 113.661 37.746 113.661 49.425 L 113.661 58.938 C 113.661 70.614 123.405 80.361 135.084 80.361 L 190.821 80.361 L 202.464 80.361 L 216.6 80.361 L 216.6 23.025 C 216.6 11.346 206.856 1.599 195.177 1.599 L 119.439 1.599 Z M 140.505 48.891 L 190.821 48.891 L 190.821 60.093 L 140.505 60.093 L 140.505 48.891 Z" id="path4359" style="opacity: 1; fill-opacity: 1; fill-rule: nonzero; stroke: none; stroke-width: 8; stroke-linecap: round; stroke-linejoin: round; stroke-miterlimit: 4; stroke-dasharray: none; stroke-opacity: 1; fill: rgb(255, 255, 255);"/>
    <path d="M 232.779 1.599 L 232.779 80.361 L 259.092 80.361 L 259.092 24.357 L 286.116 24.357 L 286.116 80.361 L 312.429 80.361 L 312.429 24.357 L 339.984 24.357 L 339.984 80.361 L 365.763 80.361 L 365.763 23.025 C 365.763 11.346 356.019 1.599 344.34 1.599 L 232.779 1.599 Z" id="path4384" style="opacity: 1; fill-opacity: 1; fill-rule: nonzero; stroke: none; stroke-width: 8; stroke-linecap: round; stroke-linejoin: round; stroke-miterlimit: 4; stroke-dasharray: none; stroke-opacity: 1; fill: rgb(255, 255, 255);"/>
    <path d="M 402.477 0 C 390.798 0 381.054 9.744 381.054 21.423 L 381.054 58.848 C 381.054 70.527 390.798 80.271 402.477 80.271 L 474.483 80.271 L 474.483 57.513 L 407.835 57.513 L 407.835 22.758 L 474.483 22.758 L 474.483 0 L 402.477 0 Z" id="rect4389" style="opacity: 1; fill-opacity: 1; fill-rule: nonzero; stroke: none; stroke-width: 8; stroke-linecap: round; stroke-linejoin: round; stroke-miterlimit: 4; stroke-dasharray: none; stroke-opacity: 1; fill: rgb(255, 255, 255);"/>
  </g>
</svg>
